resources/haticons/SVG/subscriptions.svg

<!-- Generated by IcoMoon.io -->
<svg version="1.1" xmlns="http://www.w3.org/2000/svg" width="24" height="24" viewBox="0 0 24 24">
<title>subscriptions</title>
<path d="M15.984 15.984l-6-3.234v6.516zM21.984 12v8.016q0 0.797-0.586 1.383t-1.383 0.586h-16.031q-0.797 0-1.383-0.586t-0.586-1.383v-8.016q0-0.797 0.586-1.406t1.383-0.609h16.031q0.797 0 1.383 0.609t0.586 1.406zM18 2.016v1.969h-12v-1.969h12zM20.016 8.016h-16.031v-2.016h16.031v2.016z"></path>
</svg>

<svg xmlns="http://www.w3.org/2000/svg" width="24" height="24"><path d="M15.984 15.984l-6-3.234v6.516zm6-3.984v8.016q0 .797-.586 1.383t-1.383.586H3.984q-.797 0-1.383-.586t-.586-1.383V12q0-.797.586-1.406t1.383-.609h16.031q.797 0 1.383.609T21.984 12zM18 2.016v1.969H6V2.016h12zm2.016 6H3.985V6h16.031v2.016z"/></svg>
